X:275
M:C
L:1/8
K:G
c<A BA/G/ D<GG:|
d/c/|B<d d>g ag/f/ g2|B<G d>G F<A Ad/c/|B<d d>g ag/f/ g2|
c>A de/c/ B<G Gd/c/|B<d d>g ag/f/ g>c|B<G d>G F<A AB/c/|
d>cB>A B>G F>E|F<D de/c/ B<GG||

